X: 7286
T: Claudine's
R: polka
M: 2/4
K: Dmajor
|:AB/A/FA de/d/BA|AB/A/FA FE E2|AB/A/FA de/d/BA|c/B/A GA FD D2:|
|:Ad (3ddd edfd|(3Bcd ef gf e2|Ad (3ddd edfd|(3Bcd AG FD D2:|

